icons/bookmark-17.svg

<svg width="16" height="17" viewBox="0 0 16 17" fill="none" xmlns="http://www.w3.org/2000/svg">
<path fill-rule="evenodd" clip-rule="evenodd" d="M5.21436 3.4521C5.09601 3.4521 5.00007 3.54804 5.00007 3.66638V12.1614L7.5914 10.0273C7.82878 9.8318 8.17136 9.8318 8.40874 10.0273L11.0001 12.1614V3.66638C11.0001 3.54804 10.9042 3.4521 10.7858 3.4521H5.21436ZM3.71436 3.66638C3.71436 2.83795 4.38593 2.16638 5.21436 2.16638H10.7858C11.6142 2.16638 12.2858 2.83795 12.2858 3.66638V13.5235C12.2858 13.7723 12.1423 13.9987 11.9173 14.1049C11.6923 14.211 11.4263 14.1779 11.2342 14.0197L8.00007 11.3563L4.76588 14.0197C4.57386 14.1779 4.30782 14.211 4.08285 14.1049C3.85788 13.9987 3.71436 13.7723 3.71436 13.5235V3.66638Z" fill="#272431"/>
</svg>

<svg xmlns="http://www.w3.org/2000/svg" width="16" height="17" viewBox="0 0 16 17"><path fill-rule="evenodd" d="M5.214 3.452A.214.214 0 005 3.666v8.495l2.591-2.134a.643.643 0 01.818 0L11 12.161V3.666a.214.214 0 00-.214-.214H5.214zm-1.5.214a1.5 1.5 0 011.5-1.5h5.572a1.5 1.5 0 011.5 1.5v9.857a.643.643 0 01-1.052.497L8 11.356 4.766 14.02a.643.643 0 01-1.052-.496V3.665z"/></svg>
